images/dist/arrow-left.svg

<svg width="30" height="54" viewBox="0 0 30 54" fill="none" xmlns="http://www.w3.org/2000/svg">
<path d="M29.8682 7.16369C29.9512 7.78183 29.7412 8.40334 29.3002 8.84435L11.8617 26.2828C11.6665 26.4781 11.6665 26.7947 11.8617 26.9899L29.3002 44.4284C29.7412 44.8694 29.9512 45.4909 29.8682 46.109L29.1748 51.267C28.9542 52.908 26.9492 53.5856 25.7784 52.4148L0.707106 27.3435C0.31658 26.9529 0.316582 26.3198 0.707106 25.9293L25.7784 0.857938C26.9492 -0.312837 28.9542 0.364738 29.1748 2.00571L29.8682 7.16369Z" fill="white"/>
</svg>

<svg width="30" height="54" fill="none" xmlns="http://www.w3.org/2000/svg"><path d="M29.868 7.164a2 2 0 01-.568 1.68L11.862 26.283a.5.5 0 000 .707L29.3 44.428a2 2 0 01.568 1.681l-.693 5.158c-.22 1.641-2.226 2.319-3.397 1.148L.708 27.343a1 1 0 010-1.414L25.777.858c1.171-1.17 3.176-.493 3.397 1.148l.693 5.158z" fill="#fff"/></svg>
